X:1
T:Romanian Folk Dance No. 2 (Brâul)
C:Béla Bartók
M:2/4
L:1/8
Q:1/4=144
K:D
|: D2 DF | AF ED | D2 DF | E2 D2 |
D2 FA | GF ED | EG FA | D4 :|
|: d2 dB | AG FE | D2 FA | B4 |
d2 dB | AG FE | GF ED | D4 |]
